src/assets/saveMoney.svg

<svg width="41" height="40" viewBox="0 0 41 40" fill="none" xmlns="http://www.w3.org/2000/svg">
<mask id="mask0_1744_250" style="mask-type:alpha" maskUnits="userSpaceOnUse" x="0" y="0" width="41" height="40">
<rect x="0.800049" width="40" height="40" fill="#D9D9D9"/>
</mask>
<g mask="url(#mask0_1744_250)">
<path d="M32.8725 14.6262V7.92742H26.1737V5.83325H34.9666V14.6262H32.8725ZM6.6333 34.1666V25.3633H8.72747V32.0724H15.4366V34.1666H6.6333ZM6.6333 21.1433V18.8566H8.91955V21.1433H6.6333ZM6.6333 14.6262V12.3395H8.91955V14.6262H6.6333ZM6.6333 8.1195V5.83325H8.91955V8.1195H6.6333ZM13.1504 8.1195V5.83325H15.4366V8.1195H13.1504ZM19.6566 34.1666V31.8803H21.9433V34.1666H19.6566ZM19.6566 8.1195V5.83325H21.9433V8.1195H19.6566ZM26.1737 34.1666V31.8803H28.4604V34.1666H26.1737ZM32.6804 34.1666V31.8803H34.9666V34.1666H32.6804ZM32.6804 27.6495V25.3633H34.9666V27.6495H32.6804ZM32.6804 21.1433V18.8566H34.9666V21.1433H32.6804Z" fill="white"/>
</g>
</svg>

<svg width="41" height="40" viewBox="0 0 41 40" fill="none" xmlns="http://www.w3.org/2000/svg"><mask id="mask0_1744_250" style="mask-type:alpha" maskUnits="userSpaceOnUse" x="0" y="0" width="41" height="40"><path fill="#d9d9d9" d="M.8 0h40v40H.8z"/></mask><g mask="url(#mask0_1744_250)"><path d="M32.873 14.626V7.927h-6.7V5.833h8.794v8.793zm-26.24 19.54v-8.803h2.094v6.71h6.71v2.094zm0-13.023v-2.286H8.92v2.286zm0-6.517V12.34H8.92v2.286zm0-6.506V5.833H8.92V8.12zm6.517 0V5.833h2.287V8.12zm6.507 26.047V31.88h2.286v2.287zm0-26.047V5.833h2.286V8.12zm6.517 26.047V31.88h2.286v2.287zm6.506 0V31.88h2.287v2.287zm0-6.518v-2.286h2.287v2.287zm0-6.506v-2.286h2.287v2.286z" fill="#fff"/></g></svg>
